usr/share/icons/biglinux-icons-material/24/actions/debug-step-out.svg

<svg xmlns="http://www.w3.org/2000/svg" viewBox="0 0 24 24">
  <defs id="defs3051">
    <style type="text/css" id="current-color-scheme">
      .ColorScheme-Text {
        color:#dedede;
      }
      .ColorScheme-NeutralText {
        color:#f67400;
      }
      </style>
  </defs>
  <path style="fill:currentColor;fill-opacity:1;stroke:none" 
     d="M 4 4 L 4 8 L 4 20 L 5 20 L 20 20 L 20 19 L 20 10 L 19 10 L 19 19 L 5 19 L 5 8 L 14 8 L 14 6 L 14 4 L 4 4 z M 10.427734 10 C 9.3616444 10 8.9140625 10.352246 8.9140625 11.253906 L 8.9140625 12.476562 C 8.9140625 13.033473 8.8935575 13.677734 8.3046875 13.677734 L 8 13.677734 L 8 14.322266 L 8.3046875 14.322266 C 8.8935775 14.322266 8.9140625 14.966527 8.9140625 15.523438 L 8.9140625 16.746094 C 8.9140625 17.647754 9.3616444 18 10.427734 18 L 10.427734 17.408203 C 9.7170144 17.408203 9.7070312 17.169044 9.7070312 16.302734 L 9.7070312 15.294922 C 9.7070312 14.879462 9.583415 14.260256 8.984375 14.003906 C 9.583415 13.747556 9.7070312 13.130314 9.7070312 12.714844 L 9.7070312 11.697266 C 9.7070312 10.830956 9.7080344 10.591797 10.427734 10.591797 L 10.427734 10 z M 13.564453 10 L 13.564453 10.591797 C 14.275183 10.591797 14.292969 10.830956 14.292969 11.697266 L 14.292969 12.714844 C 14.292969 13.130314 14.416575 13.747556 15.015625 14.003906 C 14.416575 14.260256 14.292969 14.879462 14.292969 15.294922 L 14.292969 16.302734 C 14.292969 17.169044 14.275273 17.408203 13.564453 17.408203 L 13.564453 18 C 14.630553 18 15.085928 17.647754 15.085938 16.746094 L 15.085938 15.523438 C 15.085938 14.966527 15.126338 14.322266 15.705078 14.322266 L 16 14.322266 L 16 13.677734 L 15.705078 13.677734 C 15.126338 13.677734 15.085928 13.033473 15.085938 12.476562 L 15.085938 11.253906 C 15.085938 10.352246 14.630553 10 13.564453 10 z "
     class="ColorScheme-Text"
     />
  <path
     style="fill:currentColor;fill-opacity:1;stroke:none" 
     class="ColorScheme-NeutralText"
     d="M 17 4 L 17 8 L 20 6 L 17 4 z "
      />
</svg>

<svg xmlns="http://www.w3.org/2000/svg" viewBox="0 0 24 24"><path d="M4 4v16h16V10h-1v9H5V8h9V4H4zm6.428 6c-1.066 0-1.514.352-1.514 1.254v1.223c0 .556-.02 1.2-.61 1.2H8v.645h.305c.589 0 .61.645.61 1.201v1.223c0 .902.447 1.254 1.513 1.254v-.592c-.711 0-.721-.239-.721-1.105v-1.008c0-.416-.124-1.035-.723-1.291.6-.256.723-.874.723-1.29v-1.017c0-.866.001-1.105.72-1.105V10zm3.136 0v.592c.711 0 .729.239.729 1.105v1.018c0 .415.124 1.033.723 1.289-.6.256-.723.875-.723 1.29v1.009c0 .866-.018 1.105-.729 1.105V18c1.067 0 1.522-.352 1.522-1.254v-1.223c0-.556.04-1.2.62-1.2H16v-.645h-.295c-.579 0-.62-.645-.62-1.201v-1.223c0-.902-.454-1.254-1.52-1.254z" style="fill:currentColor;fill-opacity:1;stroke:none;color:#dedede"/><path d="M17 4v4l3-2-3-2z" style="fill:currentColor;fill-opacity:1;stroke:none;color:#f67400"/></svg>
